X:220
%%etbk:tnset id:68,pos:2,rep:3x,ant:
%%etbk:wsite http://www.thesession.org/tunes/display/131
%%etbk:pldat 2016-05-24T17:00,2015-08-18T17:26,2015-03-24T17:00,2015-02-02T19:02,2014-12-18T18:48,2014-05-21T19:25,2014-03-25T16:02,2014-02-09T13:10,2013-12-11T19:08,2013-08-27T18:09,2013-05-01T16:18
T: Young Tom Ennis
Z: Piano Box Version by Martin Fleischmann
H: Created 2013-02-19 /  Last Modified 2013-02-19
M: 6/8
L: 1/8
R: jig
K: Ador
B|: !3!cBA !2!BcB | !1!A!2!G!1!E !2!G!3!A!4!B | !3!cBA !2!B!5!e!4!d | !2!BAA A2B |
!3!cBA !2!BcB | !1!A!2!G!1!E !2!G!3!A!4!B | !3!cde !4!ded | !2!B!1!AA A2:|
f|: !4!gfe !5!age | !1!d!2!B!1!G !1!G!2!B!1!d | !4!gfe !5!agf | !2!efg !5!a2f |
!4!gfe !5!age | !1!d!2!B!1!G !2!G!3!A!4!B | !3!cBA !2!Bed | !2!BAA A2:|


